cartflows/admin-core/assets/images/plugins/suretriggers/trusted-brands/Convertkit_logo.svg

<svg width="120" height="24" viewBox="0 0 120 24" fill="none" xmlns="http://www.w3.org/2000/svg">
<g clip-path="url(#clip0_4393_128239)">
<path d="M12.4513 18.9473C16.9324 18.9473 20.3959 15.5541 20.3959 11.3684C20.3959 7.44705 17.142 5.05268 14.9869 5.05268C11.9858 5.05268 9.58028 7.16356 9.23757 10.2972C9.1741 10.8775 8.71534 11.3642 8.1332 11.36C7.16539 11.3531 5.75842 11.3448 4.86778 11.3479C4.48434 11.3492 4.16731 11.0373 4.18627 10.6533C4.32068 7.93548 5.22729 5.3943 6.95615 3.44225C8.8772 1.27316 11.6748 0 14.9869 0C20.5516 0 25.8049 5.06794 25.8049 11.3684C25.8049 18.3446 20.0381 24 12.5698 24C7.24363 24 1.87938 20.5113 0.00652726 15.6338C-0.000420605 15.6157 -0.00154349 15.5967 0.00184271 15.5772C0.0267568 15.4329 0.0762865 15.301 0.125062 15.1713C0.195979 14.9825 0.2653 14.798 0.255176 14.5853L0.222806 13.9059C0.206858 13.5707 0.395785 13.2591 0.701386 13.1165L0.972124 12.9901C1.28083 12.8461 1.50027 12.5624 1.561 12.2289C1.65175 11.7307 2.08816 11.3684 2.59755 11.3684C3.39296 11.3684 4.08469 11.8986 4.34455 12.6524C5.59514 16.2806 7.58328 18.9473 12.4513 18.9473Z" fill="#4B5563"/>
<path d="M111.51 8.38132C110.517 8.38132 110.212 7.78811 110.212 7.11839C110.212 6.41042 110.46 5.85547 111.51 5.85547C112.559 5.85547 112.807 6.41042 112.807 7.11839C112.807 7.78811 112.54 8.38132 111.51 8.38132Z" fill="#4B5563"/>
<path d="M93.3956 16.5958V11.6781L91.9999 11.6712V11.0987C91.9999 10.4752 92.5055 9.9706 93.1274 9.97366L93.3956 9.97503V7.88925L95.6283 7.25781V9.97503H97.6512V10.5531C97.6512 11.1744 97.1489 11.6781 96.5292 11.6781H95.6283V16.3088C95.6283 17.0216 96.0311 17.272 96.5502 17.3581C97.1616 17.4595 97.6702 17.9032 97.6702 18.5245V19.3704C95.5561 19.3704 93.3956 19.2769 93.3956 16.5958Z" fill="#4B5563"/>
<path fill-rule="evenodd" clip-rule="evenodd" d="M49.3487 9.76339C47.116 9.70594 44.368 11.1219 44.368 14.662C44.368 18.1446 47.116 19.5223 49.3487 19.4649C51.6388 19.5223 54.3677 18.1446 54.3677 14.662C54.3677 11.1219 51.6388 9.70594 49.3487 9.76339ZM49.3653 17.7268C47.7432 17.7268 46.5923 16.5417 46.5923 14.59C46.5923 12.7338 47.7439 11.511 49.366 11.511C50.988 11.511 52.1268 12.7313 52.1268 14.5874C52.1268 16.5392 50.9873 17.7268 49.3653 17.7268Z" fill="#4B5563"/>
<path d="M60.2326 9.78516C62.179 9.78516 64.2019 10.3209 64.2019 14.1479V19.2763H62.9575C62.3379 19.2763 61.8355 18.7725 61.8355 18.1513V13.9566C61.8355 12.1387 61.1677 11.4499 60.0035 11.4499C59.3546 11.4499 58.5151 11.9474 58.1143 12.3493V18.1513C58.1143 18.7725 57.612 19.2763 56.9923 19.2763H55.8624V10.0147H57.1214C57.5686 10.0147 57.9565 10.3242 58.057 10.761C58.6295 10.1296 59.3738 9.78516 60.2326 9.78516Z" fill="#4B5563"/>
<path d="M66.7538 10C67.228 10 67.651 10.2989 67.8105 10.7468L69.8538 16.4869L71.8969 10.7469C72.0562 10.2989 72.4792 10 72.9534 10H74.5671L71.2394 18.5457C71.0711 18.9773 70.6564 19.2615 70.1942 19.2615H68.766L65.1401 10H66.7538Z" fill="#4B5563"/>
<path fill-rule="evenodd" clip-rule="evenodd" d="M83.3899 18.8102C82.6838 19.0972 81.2514 19.4795 79.763 19.4795C77.1484 19.4795 75.1461 17.968 75.1461 14.5619C75.1461 11.5003 77.0871 9.86328 79.4537 9.86328C82.3741 9.86328 83.6202 11.829 83.4901 14.505C83.4632 15.0579 82.9833 15.4611 82.4313 15.4611H77.3968C77.5112 16.9537 78.5987 17.7382 80.03 17.7382C80.5921 17.7382 81.183 17.7096 81.8909 17.577C82.6419 17.4363 83.3899 17.9721 83.3899 18.7381V18.8102ZM81.4691 13.8921C81.6224 12.4275 80.6366 11.6238 79.4537 11.6238C78.2704 11.6238 77.4727 12.5143 77.3968 13.8921H81.4691Z" fill="#4B5563"/>
<path d="M86.464 10.0187C86.8904 10.0187 87.2618 10.3111 87.3624 10.7267C88.1257 10.1526 89.0801 9.78906 89.7476 9.78906C89.8052 9.78906 90.1676 9.78906 90.7402 9.8656V10.8586C90.7402 11.3924 90.2802 11.7982 89.7476 11.7982C89.1373 11.7982 88.2401 12.0279 87.534 12.4297V19.2801H85.2632V10.0187H86.464Z" fill="#4B5563"/>
<path d="M112.655 18.1286V9.99219H111.525C110.905 9.99219 110.403 10.4958 110.403 11.1172V19.2536H111.533C112.152 19.2536 112.655 18.75 112.655 18.1286Z" fill="#4B5563"/>
<path d="M115.725 16.6154V11.6976H114.218V11.1195C114.218 10.4982 114.72 9.99453 115.34 9.99453H115.725V7.90883L117.958 7.27734V9.99453H119.981V10.5726C119.981 11.1939 119.479 11.6976 118.859 11.6976H117.958V16.3284C117.958 17.0412 118.361 17.2916 118.88 17.3776C119.491 17.479 120 17.9227 120 18.544V19.39C117.886 19.39 115.725 19.2965 115.725 16.6154Z" fill="#4B5563"/>
<path d="M33.2097 12.75C33.224 8.41973 36.4806 6 39.6058 6C41.3416 6 42.9332 6.375 44.2422 7.3125L43.7126 8.04104C43.3584 8.52837 42.6867 8.72204 42.1274 8.50031C41.3378 8.18724 40.5943 8.12114 40.0402 8.12114C37.4832 8.12114 35.5547 9.76862 35.5409 12.7499C35.5547 15.7311 37.4832 17.4024 40.0402 17.4024C40.5943 17.4024 41.3378 17.3363 42.1274 17.0232C42.6867 16.8015 43.3584 16.9716 43.7126 17.459L44.2422 18.1875C42.9332 19.125 41.3416 19.5 39.6058 19.5C36.4806 19.5 33.224 17.0803 33.2097 12.75Z" fill="#4B5563"/>
<path d="M100.439 6.06641C101.058 6.06641 101.561 6.57008 101.561 7.19141V12.3492L106.153 6.56276C106.365 6.27501 106.7 6.10518 107.056 6.10518H109.096L103.904 12.6792L109.096 19.2507H107.056C106.7 19.2507 106.365 19.0809 106.153 18.7931L101.561 13.0083V18.1256C101.561 18.7469 101.058 19.2506 100.439 19.2506H99.2513V6.06641H100.439Z" fill="#4B5563"/>
</g>
<defs>
<clipPath id="clip0_4393_128239">
<rect width="120" height="24" fill="white"/>
</clipPath>
</defs>
</svg>

<svg width="120" height="24" fill="none" xmlns="http://www.w3.org/2000/svg"><g clip-path="url(#a)" fill="#4B5563"><path d="M12.451 18.947c4.481 0 7.945-3.393 7.945-7.579 0-3.921-3.254-6.315-5.41-6.315-3 0-5.406 2.11-5.748 5.244-.064.58-.523 1.067-1.105 1.063a365.79 365.79 0 0 0-3.265-.012.671.671 0 0 1-.682-.695c.135-2.718 1.041-5.259 2.77-7.21C8.877 1.272 11.675 0 14.986 0c5.566 0 10.819 5.068 10.819 11.368C25.805 18.345 20.038 24 12.57 24 7.244 24 1.88 20.511.007 15.634a.105.105 0 0 1-.005-.057 2.22 2.22 0 0 1 .123-.406c.071-.188.14-.373.13-.586l-.032-.68a.828.828 0 0 1 .478-.788l.271-.127c.309-.144.528-.428.589-.761.09-.498.527-.86 1.037-.86.795 0 1.487.53 1.747 1.283 1.25 3.629 3.238 6.295 8.106 6.295ZM111.51 8.381c-.993 0-1.298-.593-1.298-1.263 0-.708.248-1.263 1.298-1.263 1.049 0 1.297.555 1.297 1.263 0 .67-.267 1.263-1.297 1.263ZM93.396 16.596v-4.918L92 11.671V11.1c0-.624.505-1.128 1.127-1.125l.269.001V7.889l2.232-.631v2.717h2.023v.578c0 .621-.502 1.125-1.122 1.125h-.9v4.63c0 .714.402.964.921 1.05.612.101 1.12.545 1.12 1.166v.846c-2.114 0-4.274-.093-4.274-2.774Z"/><path fill-rule="evenodd" clip-rule="evenodd" d="M49.349 9.763c-2.233-.057-4.981 1.359-4.981 4.899 0 3.483 2.748 4.86 4.98 4.803 2.29.057 5.02-1.32 5.02-4.803 0-3.54-2.73-4.956-5.02-4.899Zm.016 7.964c-1.622 0-2.773-1.185-2.773-3.137 0-1.856 1.152-3.079 2.774-3.079s2.76 1.22 2.76 3.076c0 1.952-1.139 3.14-2.76 3.14Z"/><path d="M60.233 9.785c1.946 0 3.969.536 3.969 4.363v5.128h-1.244c-.62 0-1.122-.503-1.122-1.125v-4.194c0-1.818-.668-2.507-1.832-2.507-.65 0-1.489.497-1.89.9v5.801c0 .622-.502 1.125-1.122 1.125h-1.13v-9.261h1.26a.96.96 0 0 1 .935.746c.572-.631 1.317-.976 2.176-.976ZM66.754 10c.474 0 .897.299 1.056.747l2.044 5.74 2.043-5.74c.16-.448.582-.747 1.056-.747h1.614l-3.328 8.546a1.122 1.122 0 0 1-1.045.716h-1.428L65.14 10h1.614Z"/><path fill-rule="evenodd" clip-rule="evenodd" d="M83.39 18.81c-.706.287-2.139.67-3.627.67-2.615 0-4.617-1.512-4.617-4.918 0-3.062 1.941-4.699 4.308-4.699 2.92 0 4.166 1.966 4.036 4.642-.027.553-.507.956-1.059.956h-5.034c.114 1.493 1.202 2.277 2.633 2.277.562 0 1.153-.028 1.86-.161.752-.14 1.5.395 1.5 1.161v.072Zm-1.92-4.918c.152-1.464-.833-2.268-2.016-2.268-1.184 0-1.981.89-2.057 2.268h4.072Z"/><path d="M86.464 10.019c.426 0 .798.292.898.708.764-.574 1.718-.938 2.386-.938.057 0 .42 0 .992.077v.993c0 .533-.46.94-.992.94-.61 0-1.508.229-2.214.63v6.851h-2.27V10.02h1.2ZM112.655 18.129V9.992h-1.13c-.62 0-1.122.504-1.122 1.125v8.137h1.13c.619 0 1.122-.504 1.122-1.125ZM115.725 16.615v-4.917h-1.507v-.579c0-.62.502-1.124 1.122-1.124h.385V7.909l2.233-.632v2.718h2.023v.578c0 .62-.502 1.125-1.122 1.125h-.901v4.63c0 .713.403.964.922 1.05.611.101 1.12.545 1.12 1.166v.846c-2.114 0-4.275-.093-4.275-2.775ZM33.21 12.75C33.224 8.42 36.48 6 39.606 6c1.736 0 3.327.375 4.636 1.313l-.53.728a1.368 1.368 0 0 1-1.585.46 5.633 5.633 0 0 0-2.087-.38c-2.557 0-4.485 1.648-4.5 4.629.015 2.981 1.943 4.652 4.5 4.652.554 0 1.298-.066 2.087-.379.56-.221 1.231-.051 1.586.436l.53.729c-1.31.937-2.901 1.312-4.637 1.312-3.125 0-6.382-2.42-6.396-6.75ZM100.439 6.066c.619 0 1.122.504 1.122 1.125v5.158l4.592-5.786c.212-.288.547-.458.903-.458h2.04l-5.192 6.574 5.192 6.572h-2.04c-.356 0-.691-.17-.903-.458l-4.592-5.785v5.118c0 .62-.503 1.125-1.122 1.125h-1.188V6.066h1.188Z"/></g><defs><clipPath id="a"><path fill="#fff" d="M0 0h120v24H0z"/></clipPath></defs></svg>
